source/svgs/bowtie/uEA96-arrow-import.svg

<svg xmlns="http://www.w3.org/2000/svg" viewBox="0 0 448 448" enable-background="new 0 0 448 448"><path d="M446.625 272l-155.312 155.313-22.625-22.625 116.687-116.688h-241.375c-79.406 0-144-64.594-144-144s64.594-144 144-144v32c-61.75 0-112 50.25-112 112s50.25 112 112 112h241.375l-116.687-116.687 22.625-22.625 155.312 155.312z"/></svg>

<svg xmlns="http://www.w3.org/2000/svg" viewBox="0 0 448 448"><path d="M446.625 272L291.313 427.313l-22.625-22.625L385.375 288H144C64.594 288 0 223.406 0 144S64.594 0 144 0v32C82.25 32 32 82.25 32 144s50.25 112 112 112h241.375L268.688 139.313l22.625-22.625L446.625 272z"/></svg>
